X: 1266
T: Miss Thornton's Reel
M:C|
L:1/8
R:Reel
B:O'Neill's 1266
N:Collected by F. O'Neill
Z:Transcribed by Trish O'Neil
K:G
D2 | G2(Bd) gdBd | cBAB cedc | BGAF GBdg | ecAF GFED |
G2(Bd) gdBd | TcBAB cedc | BGAF GBdg | ecAF"End" G2 ||
b2agb2ag | egdg egdg | b2agb2ag | egfa gfga |
bgag bgag | egdg egdg | bgaf gfed | egfa gedB ||


